svg/24/logo-microsoft-teams.svg

<svg width="24" height="24" viewBox="0 0 24 24" fill="currentColor" xmlns="http://www.w3.org/2000/svg"><path d="M19.1875 8.875C18.8815 8.875 18.5983 8.81966 18.3379 8.70898C18.0775 8.59831 17.8464 8.44206 17.6445 8.24023C17.4427 8.03841 17.2865 7.80729 17.1758 7.54688C17.0651 7.28646 17.0065 7 17 6.6875C17 6.38802 17.0553 6.10482 17.166 5.83789C17.2767 5.57096 17.4329 5.33984 17.6348 5.14453C17.8366 4.94922 18.0677 4.79297 18.3281 4.67578C18.5885 4.55859 18.875 4.5 19.1875 4.5C19.487 4.5 19.7702 4.55534 20.0371 4.66602C20.304 4.77669 20.5352 4.93294 20.7305 5.13477C20.9258 5.33659 21.082 5.57096 21.1992 5.83789C21.3164 6.10482 21.375 6.38802 21.375 6.6875C21.375 6.99349 21.3197 7.27669 21.209 7.53711C21.0983 7.79753 20.9421 8.02865 20.7402 8.23047C20.5384 8.43229 20.304 8.58854 20.0371 8.69922C19.7702 8.8099 19.487 8.86849 19.1875 8.875ZM19.1875 5.75C18.9271 5.75 18.7057 5.84115 18.5234 6.02344C18.3411 6.20573 18.25 6.42708 18.25 6.6875C18.25 6.94792 18.3411 7.16927 18.5234 7.35156C18.7057 7.53385 18.9271 7.625 19.1875 7.625C19.4479 7.625 19.6693 7.53385 19.8516 7.35156C20.0339 7.16927 20.125 6.94792 20.125 6.6875C20.125 6.42708 20.0339 6.20573 19.8516 6.02344C19.6693 5.84115 19.4479 5.75 19.1875 5.75ZM22 10.4375V15.0859C22 15.5156 21.9186 15.9193 21.7559 16.2969C21.5931 16.6745 21.3717 17.0065 21.0918 17.293C20.8118 17.5794 20.4798 17.804 20.0957 17.9668C19.7116 18.1296 19.3047 18.2109 18.875 18.2109C18.6276 18.2109 18.377 18.1816 18.123 18.123C17.8691 18.0645 17.6315 17.9733 17.4102 17.8496C17.2474 18.377 17.0098 18.8555 16.6973 19.2852C16.3848 19.7148 16.0202 20.0859 15.6035 20.3984C15.1868 20.7109 14.7214 20.9518 14.207 21.1211C13.6927 21.2904 13.1654 21.375 12.625 21.375C11.987 21.375 11.388 21.2643 10.8281 21.043C10.2682 20.8216 9.76693 20.5156 9.32422 20.125C8.88151 19.7344 8.51693 19.2721 8.23047 18.7383C7.94401 18.2044 7.75521 17.625 7.66406 17H2.83008C2.60221 17 2.4069 16.9186 2.24414 16.7559C2.08138 16.5931 2 16.3978 2 16.1699V7.83008C2 7.60221 2.08138 7.4069 2.24414 7.24414C2.4069 7.08138 2.60221 7 2.83008 7H9.98828C9.79948 6.60286 9.70508 6.1862 9.70508 5.75C9.70508 5.34635 9.77995 4.96875 9.92969 4.61719C10.0794 4.26562 10.2878 3.95638 10.5547 3.68945C10.8216 3.42253 11.1309 3.21419 11.4824 3.06445C11.834 2.91471 12.2148 2.83659 12.625 2.83008C13.0286 2.83008 13.4062 2.90495 13.7578 3.05469C14.1094 3.20443 14.4186 3.41276 14.6855 3.67969C14.9525 3.94661 15.1608 4.25586 15.3105 4.60742C15.4603 4.95898 15.5384 5.33984 15.5449 5.75C15.5449 6.15365 15.4701 6.53125 15.3203 6.88281C15.1706 7.23438 14.9622 7.54362 14.6953 7.81055C14.4284 8.07747 14.1191 8.28581 13.7676 8.43555C13.416 8.58529 13.0352 8.66341 12.625 8.66992C12.5208 8.66992 12.4167 8.66341 12.3125 8.65039C12.2083 8.63737 12.1042 8.62109 12 8.60156V9.5H21.0625C21.3229 9.5 21.5443 9.59115 21.7266 9.77344C21.9089 9.95573 22 10.1771 22 10.4375ZM12.625 4.08008C12.3971 4.08008 12.1823 4.1224 11.9805 4.20703C11.7786 4.29167 11.5996 4.41211 11.4434 4.56836C11.2871 4.72461 11.1699 4.90365 11.0918 5.10547C11.0137 5.30729 10.9681 5.52214 10.9551 5.75C10.9551 5.97786 10.9974 6.19271 11.082 6.39453C11.1667 6.59635 11.2871 6.77539 11.4434 6.93164C11.5996 7.08789 11.7754 7.20508 11.9707 7.2832C12.166 7.36133 12.3841 7.4069 12.625 7.41992C12.8529 7.41992 13.0677 7.3776 13.2695 7.29297C13.4714 7.20833 13.6471 7.08789 13.7969 6.93164C13.9466 6.77539 14.0671 6.59961 14.1582 6.4043C14.2493 6.20898 14.2949 5.99089 14.2949 5.75C14.2949 5.52214 14.2526 5.30729 14.168 5.10547C14.0833 4.90365 13.9629 4.72786 13.8066 4.57812C13.6504 4.42839 13.4714 4.30794 13.2695 4.2168C13.0677 4.12565 12.8529 4.08008 12.625 4.08008ZM7.78125 10.2812H9.65625V8.71875H4.34375V10.2812H6.21875V15.2812H7.78125V10.2812ZM16.375 16.375V10.75H12V16.1699C12 16.3978 11.9186 16.5931 11.7559 16.7559C11.5931 16.9186 11.3978 17 11.1699 17H8.92383C9.00846 17.4492 9.16146 17.8659 9.38281 18.25C9.60417 18.6341 9.8776 18.9629 10.2031 19.2363C10.5286 19.5098 10.8965 19.7279 11.3066 19.8906C11.7168 20.0534 12.1562 20.1315 12.625 20.125C13.1393 20.125 13.6243 20.0273 14.0801 19.832C14.5358 19.6367 14.9329 19.3698 15.2715 19.0312C15.61 18.6927 15.8802 18.2956 16.082 17.8398C16.2839 17.3841 16.3815 16.8958 16.375 16.375ZM20.75 15.0859V10.75H17.625V16.4629C17.7943 16.6322 17.9863 16.7559 18.2012 16.834C18.416 16.9121 18.6406 16.9544 18.875 16.9609C19.1354 16.9609 19.3796 16.9121 19.6074 16.8145C19.8353 16.7168 20.0339 16.5833 20.2031 16.4141C20.3724 16.2448 20.5059 16.0462 20.6035 15.8184C20.7012 15.5905 20.75 15.3464 20.75 15.0859Z"/></svg>

<svg xmlns="http://www.w3.org/2000/svg" width="24" height="24" fill="currentColor" viewBox="0 0 24 24">
  <path d="M19.188 8.875a2.15 2.15 0 0 1-1.543-.635 2.176 2.176 0 0 1-.47-.693 2.302 2.302 0 0 1-.175-.86c0-.299.055-.582.166-.85a2.04 2.04 0 0 1 .469-.692c.202-.196.433-.352.693-.47a2.07 2.07 0 0 1 .86-.175c.299 0 .582.055.85.166.266.11.497.267.692.469.196.202.352.436.47.703.116.267.175.55.175.85a2.15 2.15 0 0 1-1.338 2.011c-.267.11-.55.17-.85.176Zm0-3.125a.904.904 0 0 0-.665.273.904.904 0 0 0-.273.665c0 .26.091.481.273.664a.904.904 0 0 0 .665.273c.26 0 .481-.091.664-.273a.904.904 0 0 0 .273-.665.904.904 0 0 0-.273-.664.904.904 0 0 0-.665-.273ZM22 10.438v4.648c0 .43-.081.833-.244 1.21-.163.378-.384.71-.664.997a3.096 3.096 0 0 1-2.217.918c-.247 0-.498-.03-.752-.088a2.691 2.691 0 0 1-.713-.273 4.857 4.857 0 0 1-.713 1.435c-.312.43-.677.8-1.093 1.113a5.028 5.028 0 0 1-2.979.977 4.83 4.83 0 0 1-1.797-.332 5.074 5.074 0 0 1-1.504-.918 4.959 4.959 0 0 1-1.094-1.387A5.248 5.248 0 0 1 7.664 17H2.83a.8.8 0 0 1-.586-.244A.8.8 0 0 1 2 16.17V7.83a.8.8 0 0 1 .244-.586A.8.8 0 0 1 2.83 7h7.158a2.877 2.877 0 0 1-.283-1.25c0-.404.075-.781.225-1.133a2.914 2.914 0 0 1 1.552-1.553 3.01 3.01 0 0 1 1.143-.234c.404 0 .781.075 1.133.225a2.913 2.913 0 0 1 1.553 1.552c.15.352.227.733.234 1.143 0 .404-.075.781-.225 1.133a2.914 2.914 0 0 1-1.552 1.553 3.01 3.01 0 0 1-1.143.234c-.104 0-.208-.007-.313-.02A5.186 5.186 0 0 1 12 8.602V9.5h9.063c.26 0 .481.091.664.273a.904.904 0 0 1 .273.665ZM12.625 4.08a1.65 1.65 0 0 0-1.182.488 1.537 1.537 0 0 0-.351.537 2.107 2.107 0 0 0-.137.645 1.65 1.65 0 0 0 1.016 1.533c.195.078.413.124.654.137.228 0 .443-.042.645-.127.201-.085.377-.205.527-.361.15-.157.27-.332.361-.528a1.53 1.53 0 0 0 .137-.654 1.65 1.65 0 0 0-.127-.645 1.556 1.556 0 0 0-.361-.527 1.898 1.898 0 0 0-.537-.361 1.547 1.547 0 0 0-.645-.137Zm-4.844 6.201h1.875V8.72H4.344v1.562h1.875v5H7.78v-5Zm8.594 6.094V10.75H12v5.42a.8.8 0 0 1-.244.586.8.8 0 0 1-.586.244H8.924c.084.45.237.866.459 1.25.221.384.495.713.82.986.326.274.694.492 1.104.655.41.162.85.24 1.318.234.514 0 1-.098 1.455-.293a3.762 3.762 0 0 0 1.191-.8 3.9 3.9 0 0 0 .811-1.192c.202-.456.3-.944.293-1.465Zm4.375-1.29V10.75h-3.125v5.713c.17.17.361.293.576.371.215.078.44.12.674.127a1.882 1.882 0 0 0 1.729-1.142c.097-.229.146-.473.146-.733Z"/>
</svg>
